material/.icons/material/division.svg

<svg xmlns="http://www.w3.org/2000/svg" viewBox="0 0 24 24"><path d="M19 13H5v-2h14v2m-7-8a2 2 0 012 2 2 2 0 01-2 2 2 2 0 01-2-2 2 2 0 012-2m0 10a2 2 0 012 2 2 2 0 01-2 2 2 2 0 01-2-2 2 2 0 012-2z"/></svg>

<?xml version="1.0" encoding="UTF-8"?><!DOCTYPE svg PUBLIC "-//W3C//DTD SVG 1.1//EN" "http://www.w3.org/Graphics/SVG/1.1/DTD/svg11.dtd"><svg xmlns="http://www.w3.org/2000/svg" xmlns:xlink="http://www.w3.org/1999/xlink" version="1.1" id="mdi-division" width="24" height="24" viewBox="0 0 24 24"><path d="M19,13H5V11H19V13M12,5A2,2 0 0,1 14,7A2,2 0 0,1 12,9A2,2 0 0,1 10,7A2,2 0 0,1 12,5M12,15A2,2 0 0,1 14,17A2,2 0 0,1 12,19A2,2 0 0,1 10,17A2,2 0 0,1 12,15Z" /></svg>
